build/Karasa-Jaga/scalable/status/network-wireless-hotspot-symbolic.svg

<svg height="16" width="16" xmlns="http://www.w3.org/2000/svg"><path d="m2.8125 1.21875c-.8907584 0-1.59375.7029916-1.59375 1.59375v10.375c0 .890758.7029916 1.59375 1.59375 1.59375h10.375c.890758 0 1.59375-.702992 1.59375-1.59375v-10.375c0-.8907584-.702992-1.59375-1.59375-1.59375zm5.1875 2.375c2.162097 0 4.31912.8191256 5.96875 2.46875l-.78125.8125c-2.859474-2.8577931-7.5161696-2.8588305-10.375 0l-.78125-.8125c1.6496244-1.6496246 3.8066529-2.4687499 5.96875-2.46875zm0 2.25c1.5855382 0 3.165275.6027752 4.375 1.8125l-.78125.8125c-1.9795491-1.9795494-5.2079505-1.9795496-7.1875 0l-.78125-.8125c1.2097247-1.2097248 2.7894619-1.8125 4.375-1.8125zm0 2.96875c.9331688 0 1.6875.7543313 1.6875 1.6875 0 .933168-.7543312 1.6875-1.6875 1.6875-.9331689 0-1.6875-.754332-1.6875-1.6875 0-.9331687.7543311-1.6875 1.6875-1.6875z" fill="#f57900"/></svg>

<?xml version="1.0" encoding="UTF-8" standalone="no"?>
<!-- Created with Inkscape (http://www.inkscape.org/) -->

<svg
   xmlns:dc="http://purl.org/dc/elements/1.1/"
   xmlns:cc="http://creativecommons.org/ns#"
   xmlns:rdf="http://www.w3.org/1999/02/22-rdf-syntax-ns#"
   xmlns:svg="http://www.w3.org/2000/svg"
   xmlns="http://www.w3.org/2000/svg"
   xmlns:xlink="http://www.w3.org/1999/xlink"
   xmlns:sodipodi="http://sodipodi.sourceforge.net/DTD/sodipodi-0.dtd"
   xmlns:inkscape="http://www.inkscape.org/namespaces/inkscape"
   id="svg7384"
   height="16"
   width="16"
   version="1.1"
   inkscape:version="0.48.4 r9939"
   sodipodi:docname="network-wireless-acquiring-symbolic.svg">
  <sodipodi:namedview
     pagecolor="#ffffff"
     bordercolor="#666666"
     borderopacity="1"
     objecttolerance="10"
     gridtolerance="10"
     guidetolerance="10"
     inkscape:pageopacity="0"
     inkscape:pageshadow="2"
     inkscape:window-width="1364"
     inkscape:window-height="703"
     id="namedview17"
     showgrid="false"
     inkscape:zoom="27.231929"
     inkscape:cx="18.478148"
     inkscape:cy="8"
     inkscape:window-x="0"
     inkscape:window-y="0"
     inkscape:window-maximized="1"
     inkscape:current-layer="svg7384" />
  <metadata
     id="metadata90">
    <rdf:RDF>
      <cc:Work
         rdf:about="">
        <dc:format>image/svg+xml</dc:format>
        <dc:type
           rdf:resource="http://purl.org/dc/dcmitype/StillImage" />
        <dc:title>Gnome Symbolic Icon Theme</dc:title>
      </cc:Work>
    </rdf:RDF>
  </metadata>
  <title
     id="title9167">Gnome Symbolic Icon Theme</title>
  <defs
     id="defs7386">
    <clipPath
       id="clipPath6279-6-1-4-5"
       clipPathUnits="userSpaceOnUse">
      <rect
         id="rect6281-3-0-3-5"
         style="color:#bebebe;fill:#bebebe"
         height="6.375"
         width="3.825"
         y="220.75"
         x="26.85" />
    </clipPath>
    <clipPath
       id="clipPath6265-33-6-5-1-3"
       clipPathUnits="userSpaceOnUse">
      <rect
         id="rect6267-6-9-1-4-8"
         style="color:#bebebe;fill:#bebebe"
         height="5.2159"
         width="2.8977"
         y="221.33"
         x="26.966" />
    </clipPath>
    <clipPath
       id="clipPath6259-6-8-2-1-6-6"
       clipPathUnits="userSpaceOnUse">
      <rect
         id="rect6261-4-9-2-0-9-0"
         style="color:#bebebe;fill:#bebebe"
         height="4.8735"
         width="1.8763"
         y="221.5"
         x="26.999" />
    </clipPath>
    <linearGradient
       inkscape:collect="always"
       xlink:href="#linearGradient3864"
       id="linearGradient3880"
       gradientUnits="userSpaceOnUse"
       x1="125.53125"
       y1="11.579919"
       x2="125.53125"
       y2="64" />
    <linearGradient
       inkscape:collect="always"
       id="linearGradient3864">
      <stop
         style="stop-color:#ffffff;stop-opacity:1;"
         offset="0"
         id="stop3866" />
      <stop
         style="stop-color:#ffffff;stop-opacity:0;"
         offset="1"
         id="stop3868" />
    </linearGradient>
  </defs>
  <path
     style="fill:#f57900;fill-opacity:1;stroke:none"
     d="M 2.8125 1.21875 C 1.9217416 1.21875 1.21875 1.9217416 1.21875 2.8125 L 1.21875 13.1875 C 1.21875 14.078258 1.9217416 14.78125 2.8125 14.78125 L 13.1875 14.78125 C 14.078258 14.78125 14.78125 14.078258 14.78125 13.1875 L 14.78125 2.8125 C 14.78125 1.9217416 14.078258 1.21875 13.1875 1.21875 L 2.8125 1.21875 z M 8 3.59375 C 10.162097 3.59375 12.31912 4.4128756 13.96875 6.0625 L 13.1875 6.875 C 10.328026 4.0172069 5.6713304 4.0161695 2.8125 6.875 L 2.03125 6.0625 C 3.6808744 4.4128754 5.8379029 3.5937501 8 3.59375 z M 8 5.84375 C 9.5855382 5.84375 11.165275 6.4465252 12.375 7.65625 L 11.59375 8.46875 C 9.6142009 6.4892006 6.3857995 6.4892004 4.40625 8.46875 L 3.625 7.65625 C 4.8347247 6.4465252 6.4144619 5.84375 8 5.84375 z M 8 8.8125 C 8.9331688 8.8125 9.6875 9.5668313 9.6875 10.5 C 9.6875 11.433168 8.9331688 12.1875 8 12.1875 C 7.0668311 12.1875 6.3125 11.433168 6.3125 10.5 C 6.3125 9.5668313 7.0668311 8.8125 8 8.8125 z "
     id="rect10034" />
</svg>
